src/images/festival.svg

<svg fill="none" height="94" viewBox="0 0 451 94" width="451" xmlns="http://www.w3.org/2000/svg"><path d="m.976.543999v33.456001h8.16v-33.456001zm28.4134 25.296001-8.352-25.296001h-8.496l12.096 33.456001h9.504l12.096-33.456001h-8.496zm66.1729 8.16-12.24-33.456001h-9.888l-12.24 33.456001h8.784l1.728-5.232h13.344l1.728 5.232zm-17.184-25.584 4.464 13.632h-8.976zm41.4017 14.4-10.608-22.272001h-10.3679v33.456001h8.1599v-22.272l10.656 22.272h10.32v-33.456001h-8.16zm35.11 0-10.608-22.272001h-10.368v33.456001h8.16v-22.272l10.656 22.272h10.32v-33.456001h-8.16zm32.757-22.272001v20.976001c0 3.264-2.256 5.472-5.472 5.472s-5.472-2.208-5.472-5.472v-20.976001h-8.16v21.408001c0 3.696 1.296 6.672 3.84 9.024s5.856 3.504 9.84 3.504 7.2-1.152 9.744-3.504 3.792-5.328 3.792-9.024v-21.408001zm43.665 33.456001-12.24-33.456001h-9.888l-12.24 33.456001h8.784l1.728-5.232h13.344l1.728 5.232zm-17.184-25.584 4.464 13.632h-8.976zm28.586-7.872001h-8.16v33.456001h22.56v-7.2h-14.4zm32.387 0v33.456001h12.48c5.04 0 9.168-1.584 12.384-4.704s4.848-7.152 4.848-12.048c0-4.848-1.632-8.88-4.848-12s-7.344-4.704001-12.384-4.704001zm8.16 26.256001v-19.056h4.272c2.64 0 4.752.864 6.432 2.64s2.496 4.08 2.496 6.816c0 2.832-.816 5.136-2.496 6.912s-3.792 2.688-6.432 2.688zm49.963-26.256001h-23.904v33.456001h23.904v-7.2h-15.744v-6.192h14.592v-6.864h-14.592v-6h15.744zm17.733-.4799998c-3.888 0-7.056.9600008-9.504 2.8800008s-3.648 4.512-3.648 7.728c0 1.92.48 3.552 1.392 4.848 1.872 2.64 4.704 3.36 7.968 4.224 4.704 1.2 9.312 1.392 9.36 4.464 0 2.16-2.256 3.648-5.376 3.648-3.648 0-6-2.016-6.048-4.848h-8.16c.048 3.504 1.392 6.288 3.936 8.352s5.808 3.12 9.888 3.12c4.176 0 7.536-.96 10.176-2.88 2.592-1.872 3.888-4.464 3.888-7.728 0-1.968-.48-3.6-1.392-4.944-1.872-2.64-4.704-3.456-7.968-4.272-4.704-1.104-9.36-1.344-9.36-4.512 0-2.112 1.92-3.456 4.656-3.456 3.072 0 5.136 1.872 5.184 4.704h7.92c-.048-3.312-1.248-6.048-3.696-8.16s-5.52-3.1680008-9.216-3.1680008zm18.55.4799998v33.456001h8.16v-33.456001zm30.334 14.640001v6.864h8.208c-1.152 3.216-4.368 5.28-8.208 5.28-2.736 0-4.944-.96-6.672-2.88-1.776-1.872-2.64-4.32-2.64-7.248s.864-5.376 2.64-7.248c1.728-1.872 3.936-2.832 6.672-2.832 3.84 0 6.864 2.16 8.208 5.568h8.496c-.72-3.696-2.688-6.72-5.808-9.072s-6.768-3.5520008-10.944-3.5520008c-5.136 0-9.312 1.6320008-12.624 4.8480008s-4.944 7.344-4.944 12.336 1.632 9.12 4.944 12.336c3.312 3.264 7.488 4.896 12.624 4.896s9.312-1.632 12.528-4.848 4.848-7.344 4.848-12.384c0-1.008 0-1.728-.048-2.064zm42.861 7.632-10.608-22.272001h-10.368v33.456001h8.16v-22.272l10.656 22.272h10.32v-33.456001h-8.16zm-418.398 36.728h-23.328v33.456h8.16v-12.624h14.064v-6.912h-14.064v-6.72h15.168zm28.3729 0h-23.904v33.456h23.904v-7.2h-15.744v-6.192h14.592v-6.864h-14.592v-6h15.744zm17.7334-.48c-3.888 0-7.056.96-9.5041 2.88-2.4479 1.92-3.6479 4.512-3.6479 7.728 0 1.92.48 3.552 1.392 4.848 1.872 2.64 4.704 3.36 7.968 4.224 4.704 1.2 9.312 1.392 9.36 4.464 0 2.16-2.256 3.648-5.376 3.648-3.648 0-6-2.016-6.048-4.848h-8.16c.048 3.504 1.392 6.288 3.936 8.352s5.808 3.12 9.888 3.12c4.176 0 7.536-.96 10.176-2.88 2.592-1.872 3.888-4.464 3.888-7.728 0-1.968-.48-3.6-1.392-4.944-1.872-2.64-4.704-3.456-7.968-4.272-4.704-1.104-9.36-1.344-9.36-4.512 0-2.112 1.92-3.456 4.656-3.456 3.072 0 5.136 1.872 5.184 4.704h7.92c-.048-3.312-1.248-6.048-3.696-8.16s-5.52-3.168-9.216-3.168zm15.6813.48v7.2h9.264v26.256h8.1604v-26.256h9.264v-7.2zm30.2434 0v33.456h8.16v-33.456zm28.414 25.296-8.352-25.296h-8.496l12.096 33.456h9.504l12.096-33.456h-8.496zm47.61 8.16-12.24-33.456h-9.888l-12.24 33.456h8.784l1.728-5.232h13.344l1.728 5.232zm-17.184-25.584 4.464 13.632h-8.976zm28.586-7.872h-8.16v33.456h22.56v-7.2h-14.4z" fill="#fff"/></svg>

<svg width="451" height="94" viewBox="0 0 451 94" fill="none" xmlns="http://www.w3.org/2000/svg">
<path d="M0.976 0.543999V34H9.136V0.543999H0.976ZM29.3894 25.84L21.0374 0.543999H12.5414L24.6374 34H34.1414L46.2374 0.543999H37.7414L29.3894 25.84ZM95.5623 34L83.3223 0.543999H73.4343L61.1943 34H69.9783L71.7063 28.768H85.0503L86.7783 34H95.5623ZM78.3783 8.416L82.8423 22.048H73.8663L78.3783 8.416ZM119.78 22.816L109.172 0.543999H98.8041V34H106.964V11.728L117.62 34H127.94V0.543999H119.78V22.816ZM154.89 22.816L144.282 0.543999H133.914V34H142.074V11.728L152.73 34H163.05V0.543999H154.89V22.816ZM187.647 0.543999V21.52C187.647 24.784 185.391 26.992 182.175 26.992C178.959 26.992 176.703 24.784 176.703 21.52V0.543999H168.543V21.952C168.543 25.648 169.839 28.624 172.383 30.976C174.927 33.328 178.239 34.48 182.223 34.48C186.207 34.48 189.423 33.328 191.967 30.976C194.511 28.624 195.759 25.648 195.759 21.952V0.543999H187.647ZM231.312 34L219.072 0.543999H209.184L196.944 34H205.728L207.456 28.768H220.8L222.528 34H231.312ZM214.128 8.416L218.592 22.048H209.616L214.128 8.416ZM242.714 0.543999H234.554V34H257.114V26.8H242.714V0.543999ZM275.101 0.543999V34H287.581C292.621 34 296.749 32.416 299.965 29.296C303.181 26.176 304.813 22.144 304.813 17.248C304.813 12.4 303.181 8.368 299.965 5.248C296.749 2.128 292.621 0.543999 287.581 0.543999H275.101ZM283.261 26.8V7.744H287.533C290.173 7.744 292.285 8.608 293.965 10.384C295.645 12.16 296.461 14.464 296.461 17.2C296.461 20.032 295.645 22.336 293.965 24.112C292.285 25.888 290.173 26.8 287.533 26.8H283.261ZM333.224 0.543999H309.32V34H333.224V26.8H317.48V20.608H332.072V13.744H317.48V7.744H333.224V0.543999ZM350.957 0.0639992C347.069 0.0639992 343.901 1.024 341.453 2.944C339.005 4.864 337.805 7.456 337.805 10.672C337.805 12.592 338.285 14.224 339.197 15.52C341.069 18.16 343.901 18.88 347.165 19.744C351.869 20.944 356.477 21.136 356.525 24.208C356.525 26.368 354.269 27.856 351.149 27.856C347.501 27.856 345.149 25.84 345.101 23.008H336.941C336.989 26.512 338.333 29.296 340.877 31.36C343.421 33.424 346.685 34.48 350.765 34.48C354.941 34.48 358.301 33.52 360.941 31.6C363.533 29.728 364.829 27.136 364.829 23.872C364.829 21.904 364.349 20.272 363.437 18.928C361.565 16.288 358.733 15.472 355.469 14.656C350.765 13.552 346.109 13.312 346.109 10.144C346.109 8.032 348.029 6.688 350.765 6.688C353.837 6.688 355.901 8.56 355.949 11.392H363.869C363.821 8.08 362.621 5.344 360.173 3.232C357.725 1.12 354.653 0.0639992 350.957 0.0639992ZM369.507 0.543999V34H377.667V0.543999H369.507ZM399.841 15.184V22.048H408.049C406.897 25.264 403.681 27.328 399.841 27.328C397.105 27.328 394.897 26.368 393.169 24.448C391.393 22.576 390.529 20.128 390.529 17.2C390.529 14.272 391.393 11.824 393.169 9.952C394.897 8.08 397.105 7.12 399.841 7.12C403.681 7.12 406.705 9.28 408.049 12.688H416.545C415.825 8.992 413.857 5.968 410.737 3.616C407.617 1.264 403.969 0.0639992 399.793 0.0639992C394.657 0.0639992 390.481 1.696 387.169 4.912C383.857 8.128 382.225 12.256 382.225 17.248C382.225 22.24 383.857 26.368 387.169 29.584C390.481 32.848 394.657 34.48 399.793 34.48C404.929 34.48 409.105 32.848 412.321 29.632C415.537 26.416 417.169 22.288 417.169 17.248C417.169 16.24 417.169 15.52 417.121 15.184H399.841ZM442.702 22.816L432.094 0.543999H421.726V34H429.886V11.728L440.542 34H450.862V0.543999H442.702V22.816ZM24.304 59.544H0.976V93H9.136V80.376H23.2V73.464H9.136V66.744H24.304V59.544ZM52.6769 59.544H28.7729V93H52.6769V85.8H36.9329V79.608H51.5249V72.744H36.9329V66.744H52.6769V59.544ZM70.4103 59.064C66.5223 59.064 63.3543 60.024 60.9062 61.944C58.4583 63.864 57.2583 66.456 57.2583 69.672C57.2583 71.592 57.7383 73.224 58.6503 74.52C60.5223 77.16 63.3543 77.88 66.6183 78.744C71.3223 79.944 75.9303 80.136 75.9783 83.208C75.9783 85.368 73.7223 86.856 70.6023 86.856C66.9543 86.856 64.6023 84.84 64.5543 82.008H56.3943C56.4423 85.512 57.7863 88.296 60.3303 90.36C62.8743 92.424 66.1383 93.48 70.2183 93.48C74.3943 93.48 77.7543 92.52 80.3943 90.6C82.9863 88.728 84.2823 86.136 84.2823 82.872C84.2823 80.904 83.8023 79.272 82.8903 77.928C81.0183 75.288 78.1863 74.472 74.9223 73.656C70.2183 72.552 65.5623 72.312 65.5623 69.144C65.5623 67.032 67.4823 65.688 70.2183 65.688C73.2903 65.688 75.3543 67.56 75.4023 70.392H83.3223C83.2743 67.08 82.0743 64.344 79.6263 62.232C77.1783 60.12 74.1063 59.064 70.4103 59.064ZM86.0916 59.544V66.744H95.3556V93H103.516V66.744H112.78V59.544H86.0916ZM116.335 59.544V93H124.495V59.544H116.335ZM144.749 84.84L136.397 59.544H127.901L139.997 93H149.501L161.597 59.544H153.101L144.749 84.84ZM192.359 93L180.119 59.544H170.231L157.991 93H166.775L168.503 87.768H181.847L183.575 93H192.359ZM175.175 67.416L179.639 81.048H170.663L175.175 67.416ZM203.761 59.544H195.601V93H218.161V85.8H203.761V59.544Z" fill="white"/>
</svg>
